!! 00000] TT[WS
!!!OTL: Shiquan renxen
!!!ARE: Asia, China, Shanxi Pingjie
!! Ethnic Group: Han
!! WII, 237 (2)
!!!SCT: J0758
!!!YEM: Copyright 1995, estate of Helmut Schaffrath.
**kern
*ICvox
*Ivox
*M4/4
*k[f#]
*G:
{8a
8dd
8dd
16dd
16ee
8.b
16a
4g
=1
8a
16a
16b
8a
8e
2d}
=2
{8a
16a
16b
8a
8a
8g
16f#
16e
16d
16e
8d
=3
8a
8a
16e
16d
16e
16g
2d}
=4
{8a
8d
4g
8a
8dd
16gg
8b
16dd
=5
8a
16a
16b
8a
8dd
4.g
16f#
16e}
=6
{8a
16a
16b
16a
16b
8a
8g
16f#
16e
16e
16g
8d
=7
16a
16b
8a
16e
16d
8e
2d}
=8
{8a
16a
16b
8a
8dd
4.g
16f#
16e
=9
16a
8a
16b
16a
16b
8a
16g
8f#
16e
16e
16g
8d
=10
8a
16a
16b
16e
16d
8e
2d}
==
!!!AGN: Xiaodiao. XÅshi, Xinminge
!!!ONB: ESAC (Essen Associative Code) Database: CHINA
!!!AMT: simple quadruple
!!!AIN: vox
!!!EED: Helmut Schaffrath
!!!EEV: 1.0
*-
